X:1
T:The Girl That Broke My Heart
M:4/4
L:1/8
R:reel
K:Ador
ed|BcBA GE{A}ED | EA{B}AG ABcd | efge dBAG | EG{A}GF GBed|
BcBA GE{A}ED | EA{B}AG ABcd | efge dBAG |1 EA{B}AG A2 :|2 EA{B}AG AE|
K:Amix
F^G|A2ce aecA | (3GGGBd gdBG | ~A2 ce aece|~d2 ce dBGB |
~A2 ce aecA | FGBd gdBG | ABce dBAG |1 EA{B}AG AE:|2 EA{B}AG A4 ||


